X: 314
T: Not identified 1
T: 63A /334 (lesnoto)
O: Macedonia
M: 3/8
L: 1/8
K: C
CDE|CDE|AGF|EDC|\
CDE|CDE|AGF|G3|
GAB|GAB|AGF|EDC|\
AGF|EFD|C3|C3|
M:7/8
[c2G2][cG][e2c2][e2c2]|[d2B2][cA][c2A2][c2A2]|\
[e2c2][ec][a2f2][a2f2]|[a2f2][ge][g4e4]|
|:[g2e2][af][b2g2][b2g2]|[a2f2][ge][g2e2][g2e2]|\
[g2e2][ge][f2d2][f2d2]|[f2d2][ec][e4c4]:|
